X: 1183
T: Miss Rowan Davies
B: ralph
B: to learn
M:3/4
R: waltz
Q: 1/4=100
K:Gmajor
V:1 
BA|"G" G4 D2|"D" D3 E F2|"Em" G6-|"Bm" G2 g3 f|"C" e3 G G2|"G" d3 G B2|"Am" A6|"D" B4 A2|
 "G" G4 D2|"D" D3 E F2|"Em" G6-|"Bm" G3 A BG|"Am" Ec- c2 A2|"D7" F4 G2|"G" G6-|G4:|
 |:GF|"C" E3 E E2|"Am" e3 G G2|"Bm" d6-|"Em" d4 BA|"C" G3 A B2|"Am" e2 G3 A|"G" B6-|"Bm" B2 c2 dg|
 "C" e4 EG|"D7" F3 G AF|"G" G6-|"Em" G3 A BG|"Am" Ec- c2 A2|"D7" F4 G2|"G" G6-|G4:|
% abcbook-tune_id 63453f56ee28bdd5687fdbf0
% abcbook-link-0 https://www.youtube.com/watch?v=vAKAZA8tzqQ
% abcbook-link-title-0 Miss Rowan Davies | Folky MacFolk Face | The Fox Sessions

% abcbook-boost 0
% abcbook-tablature 
% abcbook-transpose 
% abcbook-lastupdated 1666789590317
% abcbook-soundfonts 
% abcbook-repeats 3


